X: 107102
T: The HIGHLANDMAN KISSED HIS MOTHER
Q: "Reel."
R:  Reel.
%R: reel
B: James Kerr "Merry Melodies" v.1 p.7 s.1 #2
Z: 2017 John Chambers <jc:trillian.mit.edu>
M: C
L: 1/8
K: C	% and Am
|:\
cgge gcge | cgge dBGB |\
cgge gcge | a^fge dBGB ::\
ceAe ceAe | ceAe dBGB |\
ceAe ceA^g | a^fge dBGB :|

%%sep 1 1 500
%%sep 1 1 500

